X: 8599
T: Cronin's
R: reel
M: 4/4
K: Cmajor
|:C3D EG G2|cded cA A2|(3 ABc Gc A2Aa|gecd edd2|
C3D EG G2|cded cA A2|(3 ABc Gc A2Aa|gedf ecc2:|
|:g3a ge (3 eee|fedf ecc2|(3 ABc Gc A2Aa|gecd edd2|
g3a ge (3 eee|fedf ecc2|(3 ABc Gc A2Aa|gedf ecc2:|

